X: 71
T: No_162_Lullaby.krn
N: Derived from No_162_Lullaby.krn
%%abc-version 2.0
%%abcx-abcm2ps-target-version 5.9.1 (29 Sep 2008)
%%abc-creator hum2abc beta
%%abcx-conversion-date 2019/03/15 08:37:56
%%humdrum-veritas 704444658
%%humdrum-veritas-data 3783138953
%%linebreak <none>
%%barnumbers 0
L: 1/8
M: 2/4
K: G clef=bass
G,/ [I:setbarnb 1]| 
G,2B,3/A,/ ||  
[M:3/4]B,A,/A,/ A,A, G,G,/E,/ | 
(G,2E,) z E,E, ||  
[M:2/4]A,A,/G,/ A,A, | 
G,G,/E,/E,2 ||  
[M:3/4]A,G,/G,/ A,G,3//G,// G,3/E,/ | 
G,G, E, z z3/ E,/ ||  
[M:2/4]G,2A,2 ||  
[M:3/4]A,A,/G,/ A,A,/G,/ G,G,/E,/ | 
G,3/E,/ E, z E,E, ||  
[M:2/4]A,A,/G,/ A,A,/G,/ | 
G,G,/E,/E,2 ||  
[M:3/4]A,G,/G,/ A,G,3//G,// G,3/E,/ | 
G,G,/E,/ E,E,/ z/z2 |]  



